icons/svg/arrow-sync-2.svg

<svg width="24" height="24" viewBox="0 0 24 24" fill="none" xmlns="http://www.w3.org/2000/svg">
<path d="M7.91526 18.5315C6.42243 17.6696 5.25572 16.3392 4.59606 14.7467C3.93641 13.1541 3.82068 11.3884 4.26682 9.72338C4.71296 8.05835 5.69605 6.58706 7.0636 5.5377C8.43115 4.48834 10.1067 3.91956 11.8305 3.91956H12.8739M11.1187 1.75L12.581 3.21238C12.7763 3.40766 12.8739 3.66361 12.8739 3.91956M11.1187 6.08898L12.581 4.6266C12.7763 4.43135 12.8739 4.17546 12.8739 3.91956" stroke="currentColor" stroke-width="1.5" stroke-linecap="round" stroke-linejoin="round"/>
<path d="M16.0847 5.21863C17.5776 6.08051 18.7443 7.41089 19.4039 9.00344C20.0636 10.596 20.1793 12.3617 19.7332 14.0267C19.287 15.6918 18.304 17.163 16.9364 18.2124C15.5688 19.2618 13.8933 19.8306 12.1695 19.8306H11.1261M12.8813 22L11.419 20.5376C11.2237 20.3424 11.1261 20.0865 11.1261 19.8306M12.8813 17.661L11.419 19.1234C11.2237 19.3187 11.1261 19.5746 11.1261 19.8306" stroke="currentColor" stroke-width="1.5" stroke-linecap="round" stroke-linejoin="round"/>
</svg>

<svg xmlns="http://www.w3.org/2000/svg" width="24" height="24" fill="none" viewBox="0 0 24 24"><path stroke="currentColor" stroke-linecap="round" stroke-linejoin="round" stroke-width="1.5" d="M7.915 18.532A7.83 7.83 0 0 1 11.831 3.92h1.043m-1.755-2.17 1.462 1.462a1 1 0 0 1 .293.708m-1.755 2.169 1.462-1.462a1 1 0 0 0 .293-.707m3.211 1.299a7.83 7.83 0 0 1-3.916 14.612h-1.043M12.881 22l-1.462-1.462a1 1 0 0 1-.293-.707m1.755-2.17-1.462 1.462a1 1 0 0 0-.293.708"/></svg>
